packages/ffe-icons/icons/open/300/md/water_medium.svg

<svg xmlns="http://www.w3.org/2000/svg" height="24" viewBox="0 -960 960 960" width="24"><path d="m251.923-399.155 25.384 228.385q.77 4.616 4.039 7.693 3.27 3.077 8.27 3.077h381.153q5 0 8.269-3.077 3.27-3.077 4.039-7.693l26-239.231h-10.154q-37.23 0-68.538-5.5t-84.923-21.115q-24.154-7.385-50.116-10.385-25.961-3-52.115-3-51.385 0-99.462 12.616-48.077 12.615-91.846 38.23Zm-7.692-64.075q47-23.385 97.307-35.077 50.308-11.692 102.693-11.692 29.615 0 58.923 3.807 29.307 3.808 57.923 11.808 51.538 14.385 78.615 19.385 27.077 5 58.231 5h17.846L752.308-800H207.307l36.924 336.77Zm45.154 363.229q-27.922 0-48.692-18.385-20.769-18.384-23.384-45.692l-69.615-628.461q-3.231-26.922 14.692-47.191 17.922-20.269 45.46-20.269h544.308q27.538 0 45.46 20.269 17.923 20.269 14.692 47.191l-69.23 628.461q-2.616 27.308-23.577 45.692-20.962 18.385-48.884 18.385h-381.23ZM277.307-160h405.77-405.77Z"/></svg>

<svg xmlns="http://www.w3.org/2000/svg" height="24" viewBox="0 -960 960 960" width="24"><path d="m251.92-399.15 25.39 228.38q.77 4.62 4.04 7.69 3.27 3.08 8.27 3.08h381.15q5 0 8.27-3.08 3.27-3.07 4.04-7.69l26-239.23h-10.16q-37.23 0-68.54-5.5-31.3-5.5-84.92-21.12Q521.31-444 495.35-447q-25.97-3-52.12-3-51.38 0-99.46 12.61-48.08 12.62-91.85 38.24Zm-7.69-64.08q47-23.38 97.31-35.08Q391.85-510 444.23-510q29.62 0 58.92 3.81 29.31 3.81 57.93 11.81Q612.62-480 639.69-475q27.08 5 58.23 5h17.85l36.54-330h-545l36.92 336.77ZM289.39-100q-27.93 0-48.7-18.39-20.77-18.38-23.38-45.69l-69.62-628.46q-3.23-26.92 14.7-47.19Q180.31-860 207.85-860h544.3q27.54 0 45.46 20.27 17.93 20.27 14.7 47.19l-69.23 628.46q-2.62 27.31-23.58 45.69Q698.54-100 670.61-100H289.39Zm-12.08-60H683.08 277.31Z"/></svg>
